X: 4
T: The Flax In Bloom
R: reel
M: 4/4
L: 1/8
K: Dmaj
|:D2ED FAAf|gefd edBd|BAFB ABdf|(3gfe fd edBd|D2ED FAAf|gefd edBd|BAFB ABdf|1 afeg fdAF:|2 afeg fede|||:f2df e2ce|dfed BAFA|DFAd FAdf|(3gfe fd edBd|f2df e2ce|dfed BAFA|DFAd FAdf|1 afeg fede:|2 afeg fdAF||


Tune 748	Setting 13841

